app/images/icons/retry.svg

<svg fill="none" height="8" viewBox="0 0 8 8" width="8" xmlns="http://www.w3.org/2000/svg" xmlns:xlink="http://www.w3.org/1999/xlink"><mask id="a" fill="#fff"><path clip-rule="evenodd" d="m.778067 3.8208c.09339-1.69805 1.501803-3.051566 3.221933-3.051566.96355 0 1.83056.423406 2.42308 1.094806v-.61019c-.00252-.17858.14008-.324971.31803-.327495.08771-.001262.17163.032813.23347.094655.06184.06184.09592.14576.09465.23284v1.61538h-.49282c-.03722.00631-.07445.00631-.11105 0h-1.01151c-.11674.0019-.22464-.05931-.28332-.16027-.05932-.10033-.05932-.22527 0-.3256.05868-.10096.16658-.16217.28332-.16028h.42151c-.4701-.4966-1.13455-.80769-1.87536-.80769-1.38254 0-2.50195 1.07839-2.57704 2.44074-.00442.11611-.07193.22086-.17542.27386-.10349.05301-.2278.04606-.32497-.01767-.097176-.06436-.152075-.17542-.144503-.29152zm5.798983.32307c.00694-.17858.15712-.3174.33569-.30983.08708.00379.16911.04228.2278.10728.05805.06499.08771.15081.0814.23789-.09339 1.69804-1.5018 3.05156-3.22194 3.05156-.96355 0-1.83056-.42341-2.42307-1.0948v.61018c.00189.11674-.05932.22464-.16028.28333-.10033.05931-.22527.05931-.3256 0-.100962-.05869-.162171-.16659-.160279-.28333v-1.61538h.498499c.03408-.00505.06815-.00505.10222 0h1.01467c.11673-.00189.22464.05931.28332.16027.05931.10034.05931.22528 0 .32561-.05868.10096-.16659.16217-.28332.16027h-.42152c.47074.49661 1.13456.80769 1.87536.80769 1.38254 0 2.50196-1.07839 2.57705-2.44074z" fill="#fff" fill-rule="evenodd"/></mask><path clip-rule="evenodd" d="m.778067 3.8208c.09339-1.69805 1.501803-3.051566 3.221933-3.051566.96355 0 1.83056.423406 2.42308 1.094806v-.61019c-.00252-.17858.14008-.324971.31803-.327495.08771-.001262.17163.032813.23347.094655.06184.06184.09592.14576.09465.23284v1.61538h-.49282c-.03722.00631-.07445.00631-.11105 0h-1.01151c-.11674.0019-.22464-.05931-.28332-.16027-.05932-.10033-.05932-.22527 0-.3256.05868-.10096.16658-.16217.28332-.16028h.42151c-.4701-.4966-1.13455-.80769-1.87536-.80769-1.38254 0-2.50195 1.07839-2.57704 2.44074-.00442.11611-.07193.22086-.17542.27386-.10349.05301-.2278.04606-.32497-.01767-.097176-.06436-.152075-.17542-.144503-.29152zm5.798983.32307c.00694-.17858.15712-.3174.33569-.30983.08708.00379.16911.04228.2278.10728.05805.06499.08771.15081.0814.23789-.09339 1.69804-1.5018 3.05156-3.22194 3.05156-.96355 0-1.83056-.42341-2.42307-1.0948v.61018c.00189.11674-.05932.22464-.16028.28333-.10033.05931-.22527.05931-.3256 0-.100962-.05869-.162171-.16659-.160279-.28333v-1.61538h.498499c.03408-.00505.06815-.00505.10222 0h1.01467c.11673-.00189.22464.05931.28332.16027.05931.10034.05931.22528 0 .32561-.05868.10096-.16659.16217-.28332.16027h-.42152c.47074.49661 1.13456.80769 1.87536.80769 1.38254 0 2.50196-1.07839 2.57705-2.44074z" fill="#f9fbff" fill-rule="evenodd"/><path d="m.778067 3.8208.997933.06508.00056-.01017zm5.645013-1.95676-.74978.66169 1.74978 1.9827v-2.64439zm0-.61019h1.0001l-.0002-.01413zm.31803-.327495.01418.999895h.0002zm.23347.094655-.70711.7071.00001.00001zm.09465.23284-.99989-.0145-.00011.00725v.00725zm0 1.61538v1h1v-1zm-.49282 0v-1h-.08414l-.08296.01406zm-.11105 0 .1699-.98546-.08433-.01454h-.08557zm-1.01151 0v-1h-.00811l-.00811.00014zm-.28332-.16027.86458-.50254-.00377-.00637zm0-.3256.86084.50892.00372-.0064zm.28332-.16028-.01622.99987.00811.00013h.00811zm.42151 0v1h2.32363l-1.59741-1.68746zm-4.4524 1.63305-.998485-.05503-.000469.0085-.000324.00851zm-.17542.27386-.455874-.89004h-.000005zm-.32497-.01767-.552205.83372.003777.00248zm5.99017-.27828.04344-.99905-.00107-.00005zm-.33569.30983.99848.05503.00045-.00809.00031-.0081zm.56349-.20255.74582-.66617-.0036-.00399zm.0814.23789-.99739-.07229-.00063.00868-.00047.00869zm-5.64501 1.95676.74977-.66169-1.749774-1.98271v2.6444zm0 .61018h-1.000004v.00811l.000131.00812zm-.16028.28333-.50254-.86459-.006375.00377zm-.3256 0 .50893-.86084-.0064-.00372zm-.160279-.28333.999869.01621.00013-.0081v-.00811zm0-1.61538v-1h-.9999996v1zm.498499 0v1h.07367l.07288-.0108zm.10222 0-.14655.9892.07288.0108h.07367zm1.01467 0v1h.0081l.00811-.00013zm.28332.16027-.86459.50254.00377.00638zm0 .32561-.86084-.50893-.00372.0064zm-.28332.16027.01621-.99987-.00811-.00013h-.0081zm-.42152 0v-1h-2.325772l1.600012 1.68795zm1.87536-6.007686c-2.25574 0-4.098134 1.773126-4.220424 3.996646l1.996984.10983c.06449-1.17257 1.03893-2.10648 2.22344-2.10648zm3.17286 1.433106c-.77407-.877108-1.91014-1.433106-3.17286-1.433106v1.999996c.66439 0 1.26233.29082 1.6733.7565zm-1.74978.05151v.61019h2v-.61019zm1.30385-1.3273944c-.7302.0103575-1.31408.6107774-1.30375 1.3415244l1.9998-.02826c.00528.37359-.29339.68123-.66769.68653zm.95476.3874494c-.25312-.2531227-.59738-.3925912-.95497-.3874465l.02877 1.9997915c-.18216.00262-.35858-.0687-.48802-.19814zm.38744.954445c.00519-.358079-.13506-.702077-.38745-.954457l-1.4142 1.414227c-.1287-.1287-.20081-.30485-.19814-.48877zm.0001 1.60088v-1.61538h-2v1.61538zm-1.49282 1h.49282v-2h-.49282zm-.28096-.01454c.14999.02586.30119.02538.44807.00048l-.33421-1.97188c.07242-.01227.14916-.01276.22595.00048zm-.8416.01454h1.01151v-2h-1.01151zm-1.14789-.65775c.23975.41247.68368.66541 1.1641.65762l-.03243-1.99973c.24695-.00401.47508.12652.59746.33706zm.00375-1.33703c-.24489.41422-.24489.92919 0 1.34342l1.72163-1.01782c.12626.21356.12626.47865 0 .69222zm1.16035-.65124c-.48042-.00779-.92435.24515-1.1641.65762l1.72913 1.00505c-.12238.21055-.35051.34107-.59746.33707zm.4053-.00013h-.42151v2h.42151zm-1.87536 1.19231c.45384 0 .85932.18899 1.14914.49515l1.45244-1.37492c-.65038-.68705-1.5738-1.120232-2.60158-1.120232zm-1.57856 1.49578c.04618-.83769.73235-1.49578 1.57856-1.49578v-2.000002c-1.91887 0-3.471517 1.498702-3.575525 3.385712zm-.71803 1.10887c.42156-.21592.7005-.64417.71883-1.12589l-1.998558-.07604c.009493-.24951.153397-.46825.367984-.57816zm-1.329268-.07152c.396407.25999.904098.28928 1.329278.07151l-.911759-1.78008c.218199-.11176.477279-.09635.679339.03617zm-.593955-1.1928c-.030864.47325.1934625.92755.590184 1.19031l1.104399-1.66742c.20237.13404.3169.36623.30118.60727zm7.174923-.92078c-.73324-.03109-1.34892.53977-1.37731 1.27009l1.99849.07768c-.0145.37317-.32982.66638-.70591.65044zm.92765.43622c-.23834-.26396-.57217-.42076-.92658-.43617l-.08687 1.99811c-.18025-.00784-.35003-.08765-.47099-.22163zm.33656.98034c.02611-.36025-.09663-.71174-.33297-.97634l-1.49163 1.33231c-.12023-.13461-.18365-.31447-.17017-.50055zm-4.21932 3.97927c2.25575 0 4.09814-1.77313 4.22043-3.99665l-1.99698-.10983c-.06449 1.17257-1.03893 2.10648-2.22345 2.10648zm-3.17285-1.43311c.77407.87711 1.91014 1.43311 3.17285 1.43311v-2c-.66439 0-1.26233-.29082-1.6733-.75649zm1.74978-.05151v-.61018h-2.000004v.61018zm-.65775 1.14789c.41246-.23974.66541-.68367.65761-1.16411l-1.999733.03245c-.004006-.24697.126529-.47509.337067-.59747zm-1.337046-.00375c.414229.2449.929196.2449 1.343426 0l-1.017825-1.72163c.213565-.12626.478655-.12626.692225 0zm-.6512312-1.16034c-.0077868.48042.2451572.92434.6576122 1.16408l1.005065-1.72911c.21054.12237.34106.35049.33706.59744zm-.0001314-1.59918v1.61538h1.9999986v-1.61538zm1.4984986-1h-.498499v2h.498499zm.24878.0108c-.13125-.01945-.26409-.01945-.39533 0l.2931 1.9784c-.06309.00935-.12778.00935-.19088 0zm.86811-.0108h-1.01467v2h1.01467zm1.14788.65775c-.23974-.41247-.68367-.66541-1.1641-.65762l.03243 1.99974c-.24695.004-.47508-.12653-.59745-.33707zm-.00374 1.33704c.24489-.41423.24489-.9292 0-1.34343l-1.72164 1.01783c-.12626-.21357-.12626-.47866 0-.69223zm-1.16036.65123c.48042.00779.92436-.24515 1.1641-.65762l-1.72912-1.00505c.12237-.21054.3505-.34107.59745-.33707zm-.4053.00013h.42152v-2h-.42152zm1.87536-1.19231c-.45346 0-.85868-.18873-1.1496-.49564l-1.45152 1.3759c.65055.6863 1.57297 1.11974 2.60112 1.11974zm1.57856-1.49578c-.04617.8377-.73235 1.49578-1.57856 1.49578v2c1.91888 0 3.47152-1.4987 3.57553-3.38571z" fill="#fff" mask="url(#a)"/></svg>

<svg width="8" height="8" viewBox="0 0 8 8" fill="none" xmlns="http://www.w3.org/2000/svg">
<mask id="path-1-inside-1" fill="white">
<path fill-rule="evenodd" clip-rule="evenodd" d="M0.778067 3.8208C0.871457 2.12275 2.27987 0.769234 4 0.769234C4.96355 0.769234 5.83056 1.19264 6.42308 1.86404V1.25385C6.42056 1.07527 6.56316 0.928879 6.74111 0.926355C6.82882 0.925093 6.91274 0.959168 6.97458 1.02101C7.03642 1.08285 7.0705 1.16677 7.06923 1.25385V2.86923H6.57641C6.53919 2.87554 6.50196 2.87554 6.46536 2.86923H5.45385C5.33711 2.87113 5.22921 2.80992 5.17053 2.70896C5.11121 2.60863 5.11121 2.48369 5.17053 2.38336C5.22921 2.2824 5.33711 2.22119 5.45385 2.22308H5.87536C5.40526 1.72648 4.74081 1.41539 4 1.41539C2.61746 1.41539 1.49805 2.49378 1.42296 3.85613C1.41854 3.97224 1.35103 4.07699 1.24754 4.12999C1.14405 4.183 1.01974 4.17605 0.92257 4.11232C0.825394 4.04796 0.770495 3.9369 0.778067 3.8208ZM6.57705 4.14387C6.58399 3.96529 6.73417 3.82647 6.91274 3.83404C6.99982 3.83783 7.08185 3.87632 7.14054 3.94132C7.19859 4.00631 7.22825 4.09213 7.22194 4.17921C7.12855 5.87725 5.72014 7.23077 4 7.23077C3.03645 7.23077 2.16944 6.80736 1.57693 6.13597V6.74615C1.57882 6.86289 1.51761 6.97079 1.41665 7.02948C1.31632 7.08879 1.19138 7.08879 1.09105 7.02948C0.990088 6.97079 0.928879 6.86289 0.930771 6.74615V5.13077H1.42927C1.46335 5.12572 1.49742 5.12572 1.53149 5.13077H2.54616C2.66289 5.12888 2.7708 5.19008 2.82948 5.29104C2.88879 5.39138 2.88879 5.51632 2.82948 5.61665C2.7708 5.71761 2.66289 5.77882 2.54616 5.77692H2.12464C2.59538 6.27353 3.2592 6.58461 4 6.58461C5.38254 6.58461 6.50196 5.50622 6.57705 4.14387Z"/>
</mask>
<path fill-rule="evenodd" clip-rule="evenodd" d="M0.778067 3.8208C0.871457 2.12275 2.27987 0.769234 4 0.769234C4.96355 0.769234 5.83056 1.19264 6.42308 1.86404V1.25385C6.42056 1.07527 6.56316 0.928879 6.74111 0.926355C6.82882 0.925093 6.91274 0.959168 6.97458 1.02101C7.03642 1.08285 7.0705 1.16677 7.06923 1.25385V2.86923H6.57641C6.53919 2.87554 6.50196 2.87554 6.46536 2.86923H5.45385C5.33711 2.87113 5.22921 2.80992 5.17053 2.70896C5.11121 2.60863 5.11121 2.48369 5.17053 2.38336C5.22921 2.2824 5.33711 2.22119 5.45385 2.22308H5.87536C5.40526 1.72648 4.74081 1.41539 4 1.41539C2.61746 1.41539 1.49805 2.49378 1.42296 3.85613C1.41854 3.97224 1.35103 4.07699 1.24754 4.12999C1.14405 4.183 1.01974 4.17605 0.92257 4.11232C0.825394 4.04796 0.770495 3.9369 0.778067 3.8208ZM6.57705 4.14387C6.58399 3.96529 6.73417 3.82647 6.91274 3.83404C6.99982 3.83783 7.08185 3.87632 7.14054 3.94132C7.19859 4.00631 7.22825 4.09213 7.22194 4.17921C7.12855 5.87725 5.72014 7.23077 4 7.23077C3.03645 7.23077 2.16944 6.80736 1.57693 6.13597V6.74615C1.57882 6.86289 1.51761 6.97079 1.41665 7.02948C1.31632 7.08879 1.19138 7.08879 1.09105 7.02948C0.990088 6.97079 0.928879 6.86289 0.930771 6.74615V5.13077H1.42927C1.46335 5.12572 1.49742 5.12572 1.53149 5.13077H2.54616C2.66289 5.12888 2.7708 5.19008 2.82948 5.29104C2.88879 5.39138 2.88879 5.51632 2.82948 5.61665C2.7708 5.71761 2.66289 5.77882 2.54616 5.77692H2.12464C2.59538 6.27353 3.2592 6.58461 4 6.58461C5.38254 6.58461 6.50196 5.50622 6.57705 4.14387Z" fill="#F9FBFF"/>
<path d="M0.778067 3.8208L1.776 3.88588L1.77656 3.87571L0.778067 3.8208ZM6.42308 1.86404L5.6733 2.52573L7.42308 4.50843V1.86404H6.42308ZM6.42308 1.25385H7.42318L7.42298 1.23972L6.42308 1.25385ZM6.74111 0.926355L6.75529 1.92625L6.75549 1.92625L6.74111 0.926355ZM6.97458 1.02101L6.26747 1.72811L6.26748 1.72812L6.97458 1.02101ZM7.06923 1.25385L6.06934 1.23935L6.06923 1.2466V1.25385H7.06923ZM7.06923 2.86923V3.86923H8.06923V2.86923H7.06923ZM6.57641 2.86923V1.86923H6.49227L6.40931 1.88329L6.57641 2.86923ZM6.46536 2.86923L6.63526 1.88377L6.55093 1.86923H6.46536V2.86923ZM5.45385 2.86923V1.86923H5.44574L5.43763 1.86937L5.45385 2.86923ZM5.17053 2.70896L6.03511 2.20642L6.03134 2.20005L5.17053 2.70896ZM5.17053 2.38336L6.03137 2.89228L6.03509 2.88588L5.17053 2.38336ZM5.45385 2.22308L5.43763 3.22295L5.44574 3.22308H5.45385V2.22308ZM5.87536 2.22308V3.22308H8.19899L6.60158 1.53562L5.87536 2.22308ZM1.42296 3.85613L0.424475 3.8011L0.424006 3.8096L0.423682 3.81811L1.42296 3.85613ZM1.24754 4.12999L0.791666 3.23995L0.791661 3.23995L1.24754 4.12999ZM0.92257 4.11232L0.370365 4.94604L0.374142 4.94852L0.92257 4.11232ZM6.91274 3.83404L6.95618 2.83499L6.95511 2.83494L6.91274 3.83404ZM6.57705 4.14387L7.57553 4.1989L7.57598 4.19081L7.57629 4.18271L6.57705 4.14387ZM7.14054 3.94132L7.88636 3.27515L7.88276 3.27116L7.14054 3.94132ZM7.22194 4.17921L6.22455 4.10692L6.22392 4.1156L6.22345 4.12429L7.22194 4.17921ZM1.57693 6.13597L2.3267 5.47428L0.576926 3.49157V6.13597H1.57693ZM1.57693 6.74615H0.576926V6.75426L0.577057 6.76238L1.57693 6.74615ZM1.41665 7.02948L0.91411 6.16489L0.907735 6.16866L1.41665 7.02948ZM1.09105 7.02948L1.59998 6.16864L1.59358 6.16492L1.09105 7.02948ZM0.930771 6.74615L1.93064 6.76236L1.93077 6.75426V6.74615H0.930771ZM0.930771 5.13077V4.13077H-0.0692286V5.13077H0.930771ZM1.42927 5.13077V6.13077H1.50294L1.57582 6.11997L1.42927 5.13077ZM1.53149 5.13077L1.38494 6.11997L1.45782 6.13077H1.53149V5.13077ZM2.54616 5.13077V6.13077H2.55426L2.56237 6.13064L2.54616 5.13077ZM2.82948 5.29104L1.96489 5.79358L1.96866 5.79996L2.82948 5.29104ZM2.82948 5.61665L1.96864 5.10772L1.96492 5.11412L2.82948 5.61665ZM2.54616 5.77692L2.56237 4.77705L2.55426 4.77692H2.54616V5.77692ZM2.12464 5.77692V4.77692H-0.201132L1.39888 6.46487L2.12464 5.77692ZM4 -0.230766C1.74426 -0.230766 -0.098134 1.54236 -0.220424 3.76588L1.77656 3.87571C1.84105 2.70314 2.81549 1.76923 4 1.76923V-0.230766ZM7.17286 1.20234C6.39879 0.325232 5.26272 -0.230766 4 -0.230766V1.76923C4.66439 1.76923 5.26233 2.06005 5.6733 2.52573L7.17286 1.20234ZM5.42308 1.25385V1.86404H7.42308V1.25385H5.42308ZM6.72693 -0.0735444C5.99673 -0.0631869 5.41285 0.537233 5.42318 1.26798L7.42298 1.23972C7.42826 1.61331 7.12959 1.92095 6.75529 1.92625L6.72693 -0.0735444ZM7.68169 0.313905C7.42857 0.0607823 7.08431 -0.0786862 6.72672 -0.0735415L6.75549 1.92625C6.57333 1.92887 6.39691 1.85755 6.26747 1.72811L7.68169 0.313905ZM8.06913 1.26835C8.07432 0.910271 7.93407 0.566273 7.68168 0.313893L6.26748 1.72812C6.13878 1.59942 6.06667 1.42327 6.06934 1.23935L8.06913 1.26835ZM8.06923 2.86923V1.25385H6.06923V2.86923H8.06923ZM6.57641 3.86923H7.06923V1.86923H6.57641V3.86923ZM6.29545 3.85469C6.44544 3.88055 6.59664 3.88007 6.74352 3.85517L6.40931 1.88329C6.48173 1.87102 6.55847 1.87053 6.63526 1.88377L6.29545 3.85469ZM5.45385 3.86923H6.46536V1.86923H5.45385V3.86923ZM4.30596 3.21148C4.54571 3.62395 4.98964 3.87689 5.47006 3.8691L5.43763 1.86937C5.68458 1.86536 5.91271 1.99589 6.03509 2.20643L4.30596 3.21148ZM4.30971 1.87445C4.06482 2.28867 4.06482 2.80364 4.30971 3.21787L6.03134 2.20005C6.1576 2.41361 6.1576 2.6787 6.03134 2.89227L4.30971 1.87445ZM5.47006 1.22321C4.98964 1.21542 4.54571 1.46836 4.30596 1.88083L6.03509 2.88588C5.91271 3.09643 5.68458 3.22695 5.43763 3.22295L5.47006 1.22321ZM5.87536 1.22308H5.45385V3.22308H5.87536V1.22308ZM4 2.41539C4.45384 2.41539 4.85932 2.60438 5.14914 2.91054L6.60158 1.53562C5.9512 0.84857 5.02778 0.415388 4 0.415388V2.41539ZM2.42144 3.91117C2.46762 3.07348 3.15379 2.41539 4 2.41539V0.415388C2.08113 0.415388 0.528483 1.91409 0.424475 3.8011L2.42144 3.91117ZM1.70341 5.02004C2.12497 4.80412 2.40391 4.37587 2.42224 3.89415L0.423682 3.81811C0.433175 3.5686 0.577079 3.34986 0.791666 3.23995L1.70341 5.02004ZM0.374142 4.94852C0.770549 5.20851 1.27824 5.2378 1.70342 5.02003L0.791661 3.23995C1.00986 3.12819 1.26894 3.1436 1.471 3.27612L0.374142 4.94852ZM-0.219813 3.75572C-0.250677 4.22897 -0.0263505 4.68327 0.370371 4.94603L1.47477 3.27861C1.67714 3.41265 1.79167 3.64484 1.77595 3.88588L-0.219813 3.75572ZM6.95511 2.83494C6.22187 2.80385 5.60619 3.37471 5.5778 4.10503L7.57629 4.18271C7.56179 4.55588 7.24647 4.84909 6.87038 4.83315L6.95511 2.83494ZM7.88276 3.27116C7.64442 3.0072 7.31059 2.8504 6.95618 2.83499L6.86931 4.8331C6.68906 4.82526 6.51928 4.74545 6.39832 4.61147L7.88276 3.27116ZM8.21932 4.2515C8.24543 3.89125 8.12269 3.53976 7.88635 3.27516L6.39472 4.60747C6.27449 4.47286 6.21107 4.293 6.22455 4.10692L8.21932 4.2515ZM4 8.23077C6.25575 8.23077 8.09814 6.45764 8.22043 4.23412L6.22345 4.12429C6.15896 5.29686 5.18452 6.23077 4 6.23077V8.23077ZM0.82715 6.79766C1.60122 7.67477 2.73729 8.23077 4 8.23077V6.23077C3.33561 6.23077 2.73767 5.93995 2.3267 5.47428L0.82715 6.79766ZM2.57693 6.74615V6.13597H0.576926V6.74615H2.57693ZM1.91918 7.89404C2.33164 7.6543 2.58459 7.21037 2.57679 6.72993L0.577057 6.76238C0.573051 6.51541 0.703586 6.28729 0.914124 6.16491L1.91918 7.89404ZM0.582134 7.89029C0.996363 8.13519 1.51133 8.13519 1.92556 7.89029L0.907735 6.16866C1.1213 6.0424 1.38639 6.0424 1.59996 6.16866L0.582134 7.89029ZM-0.0690972 6.72995C-0.076884 7.21037 0.17606 7.65429 0.588515 7.89403L1.59358 6.16492C1.80412 6.28729 1.93464 6.51541 1.93064 6.76236L-0.0690972 6.72995ZM-0.0692286 5.13077V6.74615H1.93077V5.13077H-0.0692286ZM1.42927 4.13077H0.930771V6.13077H1.42927V4.13077ZM1.67805 4.14157C1.5468 4.12212 1.41396 4.12212 1.28272 4.14157L1.57582 6.11997C1.51273 6.12932 1.44804 6.12932 1.38494 6.11997L1.67805 4.14157ZM2.54616 4.13077H1.53149V6.13077H2.54616V4.13077ZM3.69404 4.78852C3.4543 4.37605 3.01037 4.12311 2.52994 4.1309L2.56237 6.13064C2.31542 6.13464 2.08729 6.00411 1.96492 5.79357L3.69404 4.78852ZM3.6903 6.12556C3.93519 5.71133 3.93519 5.19636 3.6903 4.78213L1.96866 5.79996C1.8424 5.58639 1.8424 5.3213 1.96866 5.10773L3.6903 6.12556ZM2.52994 6.77679C3.01036 6.78458 3.4543 6.53164 3.69404 6.11917L1.96492 5.11412C2.08729 4.90358 2.31542 4.77305 2.56237 4.77705L2.52994 6.77679ZM2.12464 6.77692H2.54616V4.77692H2.12464V6.77692ZM4 5.58461C3.54654 5.58461 3.14132 5.39588 2.8504 5.08897L1.39888 6.46487C2.04943 7.15117 2.97185 7.58461 4 7.58461V5.58461ZM5.57856 4.08883C5.53239 4.92653 4.84621 5.58461 4 5.58461V7.58461C5.91888 7.58461 7.47152 6.08591 7.57553 4.1989L5.57856 4.08883Z" fill="white" mask="url(#path-1-inside-1)"/>
</svg>
